X:26
T:Michael Higgins In Ireland. Le4.026
B:L.Leadley MS#4 c1850
Z:Village Music Project, 2016 Steve Mansfield
M:6/8
L:1/8
Q:3/8=110
K:D
B | dfd dBd | ABA AFA | DFA dfa | baf e2A |
dfe dBd | ABA AFA | DFA dfa | gfe d2 :|
|: f | afd dfa | b2a g2f | gab afd | Bee efg |
afd dfa | b2a g2f | gba gfe | fdd d2 :|
|: g | fdf ece | dBd AFD | EFE DFA | agf e2g |
fdf ece | dcd AFD | DFA Bgf | edc d2 :|

